X: 6442
T: Castleblaney Piper, The
R: jig
M: 6/8
K: Dmajor
AG|FDF ABc|dfd AGF|GBG EFG|FDF GFE|
FDF ABc|dfd cde|faf ged|edc d3:|
e|fed gfe|fed cAF|GBG FGA|BGE E3|
f2d g2e|fed cde|faf gec|edc d2e|
fed gfe|fed cAF|GBG FGA|BGE EFG|
FDF ABc|dfd cde|faf gec|edc d3||

